X: 14707
T: Gan Ainm
R: jig
M: 6/8
K: Fmajor
|:A/B/|cdc cAc|a3 agf|efg c2 a|g/a/g/f/e/d/ cAB|
cdc cAc|a3 agf|efg ceg|g3 f2:|
|:B|ABc G2 B|A2 c c2 a|a2 b g2 f|e/f/g/f/e/d/ c2 B|
A2 B G2 B|A2 c c2 a|bag c'2 e|g3 f2:|

